src/actions/22/project-development.svg

<svg viewBox="0 0 22 22" xmlns="http://www.w3.org/2000/svg">
 <defs>
  <style type="text/css">.ColorScheme-Text {
        color:#2e3440;
      }</style>
 </defs>
 <path class="ColorScheme-Text" d="m3 3v4 11 1h1 9 5 1v-1-5-6-4h-16zm1 4h14v6 5h-5-9v-11z" fill="currentColor"/>
</svg>

<svg xmlns="http://www.w3.org/2000/svg" viewBox="0 0 22 22">
  <defs id="defs3051">
    <style type="text/css" id="current-color-scheme">
      .ColorScheme-Text {
        color:#2e3440;
      }
      </style>
  </defs>
 <path 
    style="fill:currentColor;fill-opacity:1;stroke:none" 
    d="M 3 3 L 3 7 L 3 18 L 3 19 L 4 19 L 13 19 L 18 19 L 19 19 L 19 18 L 19 13 L 19 7 L 19 3 L 3 3 z M 4 7 L 18 7 L 18 13 L 18 18 L 13 18 L 4 18 L 4 7 z "
    class="ColorScheme-Text"
    />  
</svg>
